X:1
T:Aus tiefer Not
T:Aus tiefer Not
T:(from Biblical sonata Nr. 1)
T:Johann Kuhnau (1660-1722)
T:Arranged for a two-manual organ by Jakub Rajcani © 2019
T:Arranged for a two-manual organ by Jakub Rajcani © 2019
T:Arranged for a two-manual organ by Jakub Rajcani © 2019
C:Johann Kuhnau
Z:Arranged for a two-manual organ by Jakub Rajcani © 2019
%%score 1 { 2 | ( 3 4 6 ) | 5 } 7
L:1/8
Q:1/4=60
M:4/4
K:C
V:1 treble nm="Oboe" snm="Ob."
V:2 treble nm="Organ" snm="Org."
V:3 bass 
V:4 bass 
V:6 bass 
V:5 bass 
V:7 bass-8 nm="Pipe Organ" snm="Org."
V:1
|: z8 | z8 | z8 | z8 | z4 [xB]4 | E4 B4 | c4 B4 | G4 A4 | B8 | z4 B4 | c4 d4 | c4 A4 | G4 F4 | %13
 E8 :| z8 | z4 A4 | G4 c4 | B4 A4 | d2 c2 B4 | A8 | z4 c4 | B4 c4 | d4 G4 | B4 A4 | G8 | z4 G4 | %26
 c4 B4 | A4 E4 | G4 F4 | E8- | E8 | E8 |] %32
V:2
|: z8 | z8 | z8 | z8 | z4 [xB]4 | E4 B4 | c4 B4 | G4 A4 | B8 | z4 B4 | c4 d4 | c4 A4 | G4 F4 | %13
 E8 :| z8 | z4 A4 | G4 c4 | B4 A4 | d2 c2 B4 | A8 | z4 c4 | B4 c4 | d4 G4 | B4 A4 | G8 | z4 G4 | %26
 c4 B4 | A4 E4 | G4 F4 | E8- | E8 | E8 |] %32
V:3
|: E2 EE EE EE | ^DD =DD ^CC =CC | B,B, EE EE DD | DD ^CC DD _B,B, | A,A, A,A, A,A, ^G,G, | %5
 A,A, A,A, A,A, B,B, | B,B, DD DD ^F2 | E2 ^D2 E4 | D2 B,B, B,B, B,B, | E2 E2 E2 ^D2 | %10
 E2 E2 DD DD | E2 E2 E2 D2 | D2 E2 E2 D2 | ^CC =CC B,B, B,B, :| x8 | x4 E2 F2 | D2 C2 E2 A2 | %17
 ^F2 E2 E2 D2 | E2 E2 ^F2 B,B, | E2 A,A, EE EE | ^FF FF G2 A2 | G2 D2 E2 E2 | D4 C2 D2 | %23
 D2 B,2 E2 B,B, | B,B, CC DD DD | DD CC DD EE | GG AA AA GG | EE DD D4 | ^CC EE EE DD | %29
 D4 ^CC =CC | B,B, B,B, B,B, A,A, | B,B, B,B, ^C4 |] %32
V:4
|: C2 CC B,B, B,B, | A,A, A,A, A,A, A,A, | A,A, ^G,G, A,A, A,A, | ^G,G, =G,G, ^F,F, =F,F, | %4
 E,E, E,E, D,D, D,D, | E,E, E,E, ^F,F, [^D,A,][D,A,] | %6
 [E,G,][E,G,] [^F,A,][F,A,] [G,B,][G,B,] B,B, | B,B, B,B, E,E, A,A, | %8
 ^F,F, [F,A,][F,A,] ^G,G, =G,G, | [E,B,][E,B,] [E,A,][E,A,] [^F,B,][F,B,] [F,B,][F,B,] | %10
 G,G, CC A,A, A,A, | ^G,G, =G,G, G,G, ^F,F, | F,F, A,A, A,A, _B,B, | ^G,G, A,A, A,A, G,G, :| %14
 [^F,B,][F,B,] [F,B,][F,B,] [E,B,][E,B,] [E,A,][E,A,] | [D,^G,][D,G,] [D,=G,][D,G,] G,G, F,F, | %16
 F,F, E,E, A,A, A,A, | A,A, G,G, A,A, A,A, | B,B, A,A, A,A, G,G, | G,G, F,F, G,G, A,A, | %20
 A,A, [A,B,][A,B,] [G,B,][G,B,] [^F,D][F,D] | [B,D][B,D] [A,D][A,D] ^G,G, A,A, | %22
 ^G,G, =G,G, E,E, D,D, | ^F,F, G,G, G,G, F,F, | ^F,F, E,E, =F,F, G,G, | E,E, E,E, G,G, B,B, | %26
 EE DD ^FF EE | CC A,A, B,B, B,B, | [E,A,][E,A,] A,A, A,A, A,A, | B,B, B,B, E,E, A,A, | %30
 ^G,G, =G,G, E,E, A,2 | A,A, ^G,G, A,4 |] %32
V:5
|: (A,,A,,) A,A, ^G,G, =G,G, | ^F,F, =F,F, E,E, ^D,D, | E,E, E,E, ^F,F, =F,F, | %3
 E,E, A,,A,, D,D, D,D, | ^C,C, =C,C, B,,B,, B,,B,, | C,C, ^C,C, D,D, ^D,D, | %6
 E,E, ^F,F, G,G, ^D,D, | E,E, B,,B,, C,C, ^C,C, | D,D,^D,D, E,E,E,E, | ^C,C,=C,C, B,,B,,B,,B,, | %10
 E,E,A,A, ^F,F,=F,F, | E,E,E,E, ^C,C,D,D, | B,,B,, ^C,C, D,D, D,D, | E,E, E,E, E,E, E,E, :| %14
 ^D,D, =D,D, ^C,C, =C,C, | B,,B,, B,,B,, ^C,C, D,D, | B,,B,, C,C, A,,A,, F,F, | %17
 ^D,D, E,E, F,F, ^F,F, | ^G,G, A,A, ^D,D, E,E, | ^C,C, D,D, D,D, C,C, | D,D, ^D,D, E,E, ^F,F, | %21
 G,G, F,F, E,E, C,C, | B,,B,, B,,B,, C,C, B,,B,, | D,D, E,E, ^C,C, ^D,D, | E,E, C,C, C,C, B,,B,, | %25
 C,C, A,,A,, B,,B,, G,,G,, | E,,E,, ^F,,F,, ^D,,D,, E,,E,, | F,,F,, ^F,,F,, G,,G,, ^G,,G,, | %28
 A,,A,, ^C,C, D,D, F,,F,, | G,,G,, ^G,,G,, A,,A,, A,A, | ^G,G, =G,G, C,C, ^C,C, | %31
 E,E, E,,E,, A,,4 |] %32
V:6
|: x8 | x8 | x8 | x8 | x4 D4 | x8 | x8 | x8 | x8 | x8 | x8 | x8 | x8 | x8 :| x8 | x8 | x8 | x8 | %18
 x8 | x8 | x8 | x8 | x8 | x8 | x8 | x8 | x8 | x8 | x8 | x8 | x8 | x8 |] %32
V:7
|: (A,, A,,) A, A, ^G, G, =G, G, | ^F, F, =F, F, E, E, ^D, D, | E, E, E, E, ^F, F, =F, F, | %3
 E, E, A,, A,, D, D, D, D, | ^C, C, =C, C, B,, B,, B,, B,, | C, C, ^C, C, D, D, ^D, D, | %6
 E, E, ^F, F, G, G, ^D, D, | E, E, B,, B,, C, C, ^C, C, | D, D, ^D, D, E, E, E, E, | %9
 ^C, C, =C, C, B,, B,, B,, B,, | E, E, A, A, ^F, F, =F, F, | E, E, E, E, ^C, C, D, D, | %12
 B,, B,, ^C, C, D, D, D, D, | E, E, E, E, E, E, E, E, :| ^D, D, =D, D, ^C, C, =C, C, | %15
 B,, B,, B,, B,, ^C, C, D, D, | B,, B,, C, C, A,, A,, F, F, | ^D, D, E, E, F, F, ^F, F, | %18
 ^G, G, A, A, ^D, D, E, E, | ^C, C, D, D, D, D, C, C, | D, D, ^D, D, E, E, ^F, F, | %21
 G, G, F, F, E, E, C, C, | B,, B,, B,, B,, C, C, B,, B,, | D, D, E, E, ^C, C, ^D, D, | %24
 E, E, C, C, C, C, B,, B,, | C, C, A,, A,, B,, B,, G,, G,, | E,, E,, ^F,, F,, ^D,, D,, E,, E,, | %27
 F,, F,, ^F,, F,, G,, G,, ^G,, G,, | A,, A,, ^C, C, D, D, F,, F,, | %29
 G,, G,, ^G,, G,, A,, A,, A, A, | ^G, G, =G, G, C, C, ^C, C, | E, E, E,, E,, A,,4 |] %32

